X:5722
T:Gan ainm
R:Reel
S:
H:
N:
D:
Z:Adrian Scahill
M:4/4
L:1/8
K:G 
B3c dBGA|(3BAG Bd gdBd|c3d ecAB|cdef gedc|\
B3c dBGA|(3BAG Bd gdBd|c2ef gedc|BdAF G4:||\
dgg2 bgg2|dgg2 egdB|c3d ecAB|cdef gedB|\
dgg2 bgg2|dgg2 egdB|c2ef gedc|BdAF G4:||
